X:198
T:Bonny Ann TS.198
M:C|
L:1/8
Q:1/2=90
S:Thomas Sands’ MS,1810,Lincolnshire
N:Key as in ms
R:reel
O:England;Lincolnshire
C:Daniel Dow
Z:vmp.Ruairidh Greig, 2011
K:A
c|AAAG EFGc|AAAB cded|cBcG EFGc|Aaag aA”^cr in MS”A:|
|:g|e2c2eggd|B2G2Bddg|e2c2eggf|[Ae]aag aAAg|
agea gfed|cBAG AcBd|cBcd cdea|gede cA”^cr in MS”A|]

